icon-svg/model-s.svg

<svg xmlns="http://www.w3.org/2000/svg" width="33" height="32" viewBox="0 0 24 24" fill="#44739e" xmlns:v="https://vecta.io/nano"><path d="M20.093 8.577c-.382-.039-.451 0-.56.323-.094.278-.082.395.051.479s.111.112-.088.113c-.406 0-.623-.246-1-1.152a6.514 6.514 0 0 0-.6-1.155c-.164-.207-.1.02.186.644a12.052 12.052 0 0 1 .52 1.283l.08.318-6.244-.039c-3.857-.024-6.382.01-6.6.087-.62.216-.555-.275.248-1.893a3.477 3.477 0 0 0 .328-.785 6.122 6.122 0 0 0-.944 1.668c-.322.775-.57 1.032-.97 1.016-.145-.005-.192-.039-.1-.075.21-.084.207-.615 0-.79a1.713 1.713 0 0 0-1.231.16c-.324.2-.141.459.337.477l.481.018-.513.087c-.688.116-.326.282.671.307l.737.019.087.6a3.269 3.269 0 0 0 .164.729 1.97 1.97 0 0 0 .765.268 4.723 4.723 0 0 1 1.313.543l.625.4-.407.169a11.092 11.092 0 0 1-3.08.059c-.3-.024-.554-.422-.554-.855 0-.478-.129-.555-.394-.236a15.777 15.777 0 0 0-.086 4.693c.088.012.506.031.929.042l3.143.089 1.315.017c-.948-.047-1.059-.078-1.059-.3 0-.246.115-.252 4.414-.252 4.323 0 4.413.005 4.348.252-.058.221-.2.257-1.175.294-1.083.042-1.076.043.3.069a34.563 34.563 0 0 0 4.618-.295c.3-.049.326-.037.128.049-.242.106-.238.116.064.185.177.041-.012.052-.418.025s-.711 0-.675.058c.163.264-8.437.4-12.536.2a10.053 10.053 0 0 1-1.967-.19c.031-.05-.286-.087-.7-.083s-.761.066-.76.136c0 .328.256.44 1.091.486l.894.048-.994-.01-.995-.01v.361a1.543 1.543 0 0 0 .133.609c.113.211.275.248 1.086.248s.972-.037 1.086-.248c.18-.338.167-.743-.028-.821-.088-.036 2.813-.069 6.446-.073s6.531.04 6.439.1c-.19.12-.08.788.155.946a4.054 4.054 0 0 0 1.975-.056 1.07 1.07 0 0 0 .155-.609v-.455l-.995.01-.994.01.926-.048.927-.047.147-.54a30.785 30.785 0 0 0-.052-5.021c-.067-.361-.88-1.013-1.009-.809-.072.113-.1.1-.1-.058 0-.44-.232-.341-.358.154-.105.414-.1.512.049.512a.223.223 0 0 0 .193-.225c.015-.214.018-.214.074 0 .042.16.194.228.53.235.26 0 .4.039.311.075s-.128.119-.087.185a1.04 1.04 0 0 1-.362 1.03 9.077 9.077 0 0 1-3.367.061l-.385-.166.606-.387a4.972 4.972 0 0 1 1.376-.55c.829-.176.812-.152.934-1.284.032-.3.086-.323.78-.342 1-.029 1.352-.189.666-.3l-.513-.087.481-.018c.857-.036.53-.586-.412-.682zM6.74 10.649a4.6 4.6 0 0 1-.6-.77 6.394 6.394 0 0 1 .731.77 4.494 4.494 0 0 1 .6.77 6.342 6.342 0 0 1-.731-.77zm-.794 3.119a.261.261 0 0 1 .246.01c.042.043-.033.073-.169.068s-.18-.037-.077-.078zm-.513-.641a.258.258 0 0 1 .246.01c.042.043-.034.073-.169.067s-.18-.036-.077-.077zm0 .513a.261.261 0 0 1 .246.01c.042.043-.034.073-.169.068s-.18-.037-.077-.078zm-.489-.061c-.177 0-.249-.029-.161-.065a.5.5 0 0 1 .321 0c.088.036.016.065-.16.065zm-.834-.721a3.367 3.367 0 0 1 .641.1c.346.088.352.1.064.1a2.459 2.459 0 0 1-.641-.1c-.251-.08-.265-.102-.064-.1zm.414.536c.043.042-.033.073-.168.067s-.18-.037-.078-.078a.257.257 0 0 1 .246.011zm-.513-.129c.042.043-.033.073-.169.068s-.179-.037-.077-.078a.26.26 0 0 1 .246.01zm-.543-.7l.31.224c.029.024-.007.037-.08.037a.562.562 0 0 1-.31-.225c-.163-.201-.157-.201.08-.032zm.246 3.458c-.149-.006-.18-.037-.077-.078a.261.261 0 0 1 .246.01c.042.045-.034.077-.169.072zm1.871 0c-1.585-.164-1.924-.414-1.924-1.398 0-.354.019-.365.481-.291a15.59 15.59 0 0 1 1.122.243l.642.165-.561-.072c-.437-.056-.548-.034-.5.1a.635.635 0 0 0 .432.255l.374.081-.353.016c-.194.008-.352.073-.352.143s.158.136.352.146c.3.015.312.025.064.073-.541.1-.336.423.273.423a6.073 6.073 0 0 1 .956.078c.371.075.392.057.366-.288s-.075-.373-.667-.444l-.639-.076.577-.03.578-.03-.449-.184c-.424-.173-.428-.179-.064-.113a.94.94 0 0 1 .808.948c-.048.391-.16.41-1.516.263zm.415-.46a.741.741 0 0 1 .385 0c.087.035-.015.062-.227.059S5.88 15.6 6 15.563zm13.6-2.654a3.273 3.273 0 0 0 .93-.333c.108-.089.2-.107.2-.039s-.136.186-.3.262a3.977 3.977 0 0 1-.93.209l-.626.071zm.194.485c.042.042-.034.073-.169.067s-.18-.037-.077-.078a.257.257 0 0 1 .242.011zm-.514.128c.043.043-.033.073-.168.067s-.18-.036-.077-.077a.255.255 0 0 1 .241.01zm-.895-.392a.491.491 0 0 1 .321 0c.088.035.016.064-.16.064s-.253-.029-.165-.064zm0 .513a.491.491 0 0 1 .321 0c.088.035.016.064-.16.064s-.253-.029-.165-.064zm-.363 2.287c.969-.087 1.365-.341.691-.442l-.36-.054.353-.019c.194-.011.353-.074.353-.139s-.159-.144-.353-.174c-.329-.049-.324-.054.064-.072.29-.014.417-.082.417-.226 0-.231-.378-.2-1.42.131l-.568.178.577.033.577.033-.641.078c-.75.091-.794.078-.587-.171a10.642 10.642 0 0 1 2.8-.765c.413-.073.416-.07.416.442 0 .788-.387 1.1-1.489 1.2-.486.045-1.088.111-1.337.147a.981.981 0 0 1-.545-.028c-.135-.134-.113-.562.029-.562.2 0 .279.229.1.292-.39.143.044.197.919.118zm-.34-.367a.741.741 0 0 1 .385 0c.087.035-.015.062-.227.059s-.287-.022-.162-.059zm-1.091-2.253a1.429 1.429 0 0 1 .326.531l.021.02h-.016a.8.8 0 0 1-.346.947c-.347.258-.526.271-4.3.3-3.176.022-4.031-.008-4.444-.158-.966-.352-1.072-.851-.346-1.629a1.979 1.979 0 0 1 1.315-.7 18.693 18.693 0 0 1 6.853.1 2.394 2.394 0 0 1 .937.589zM17 10.97a2.8 2.8 0 0 1-.5.449c-.035 0 .131-.2.371-.449a2.8 2.8 0 0 1 .5-.449c.037 0-.13.202-.371.449zm1.171-1.187a.568.568 0 0 1-.31.225c-.074 0-.11-.017-.081-.037s.169-.121.31-.224c.24-.174.246-.172.083.036zM4.187 10.4a4.415 4.415 0 0 0-.8.6c-.153.188-.145.2.061.126a2.328 2.328 0 0 1 .655-.088c.385 0 .417-.031.377-.353s-.038-.334.054-.042a.612.612 0 0 0 .274.371c.123.041.152-.008.093-.162a1.771 1.771 0 0 1-.085-.529v-.313zM7.28 6.529c2.113-.308 9.073-.239 10.079.1.128.044.091-.021-.088-.155-.39-.289-2.851-.556-5.208-.563a20.128 20.128 0 0 0-5.283.537c-.153.152-.08.165.5.081zm8.577 6.301h-1.632c-1.516 0-1.654.02-1.94.288l-.308.289-.234-.289c-.221-.272-.327-.288-1.915-.288H8.147l-.452.417c-.6.555-.68 1.017-.233 1.369a.822.822 0 0 0 1.029.131 41.457 41.457 0 0 1 7.071.018 1.006 1.006 0 0 0 1.11-.213c.356-.355.237-.546-.408-.656-.743-.127-7.541-.139-8.434-.015-.541.075-.591.066-.321-.059a75.144 75.144 0 0 1 8.723-.06l.69.1v-.017l-.519-.5z"/></svg>

<?xml version="1.0" encoding="UTF-8"?>
<svg width="33px" height="32px" viewBox="0 0 24 24" fill="#44739e" version="1.1" xmlns="http://www.w3.org/2000/svg" xmlns:xlink="http://www.w3.org/1999/xlink">
            <path d="m 20.093,8.577 c -0.382,-0.039 -0.451,0 -0.56,0.323 -0.094,0.278 -0.082,0.395 0.051,0.479 0.133,0.084 0.111,0.112 -0.088,0.113 -0.406,0 -0.623,-0.246 -1,-1.152 a 6.514,6.514 0 0 0 -0.6,-1.155 c -0.164,-0.207 -0.1,0.02 0.186,0.644 a 12.052,12.052 0 0 1 0.52,1.283 L 18.682,9.43 12.438,9.391 C 8.581,9.367 6.056,9.401 5.838,9.478 5.218,9.694 5.283,9.203 6.086,7.585 A 3.477,3.477 0 0 0 6.414,6.8 6.122,6.122 0 0 0 5.47,8.468 C 5.148,9.243 4.9,9.5 4.5,9.484 4.355,9.479 4.308,9.445 4.4,9.409 4.61,9.325 4.607,8.794 4.4,8.619 A 1.713,1.713 0 0 0 3.169,8.779 C 2.845,8.979 3.028,9.238 3.506,9.256 L 3.987,9.274 3.474,9.361 C 2.786,9.477 3.148,9.643 4.145,9.668 l 0.737,0.019 0.087,0.6 a 3.269,3.269 0 0 0 0.164,0.729 1.97,1.97 0 0 0 0.765,0.268 4.723,4.723 0 0 1 1.313,0.543 l 0.625,0.4 -0.407,0.169 a 11.092,11.092 0 0 1 -3.08,0.059 C 4.049,12.431 3.795,12.033 3.795,11.6 c 0,-0.478 -0.129,-0.555 -0.394,-0.236 a 15.777,15.777 0 0 0 -0.086,4.693 c 0.088,0.012 0.506,0.031 0.929,0.042 0.423,0.011 1.838,0.051 3.143,0.089 1.305,0.038 1.9,0.045 1.315,0.017 -0.948,-0.047 -1.059,-0.078 -1.059,-0.3 0,-0.246 0.115,-0.252 4.414,-0.252 4.323,0 4.413,0.005 4.348,0.252 -0.058,0.221 -0.2,0.257 -1.175,0.294 -1.083,0.042 -1.076,0.043 0.3,0.069 a 34.563,34.563 0 0 0 4.618,-0.295 c 0.3,-0.049 0.326,-0.037 0.128,0.049 -0.242,0.106 -0.238,0.116 0.064,0.185 0.177,0.041 -0.012,0.052 -0.418,0.025 -0.406,-0.027 -0.711,0 -0.675,0.058 0.163,0.264 -8.437,0.4 -12.536,0.2 A 10.053,10.053 0 0 1 4.744,16.3 c 0.031,-0.05 -0.286,-0.087 -0.7,-0.083 -0.414,0.004 -0.761,0.066 -0.76,0.136 0,0.328 0.256,0.44 1.091,0.486 l 0.894,0.048 -0.994,-0.01 -0.995,-0.01 v 0.361 a 1.543,1.543 0 0 0 0.133,0.609 c 0.113,0.211 0.275,0.248 1.086,0.248 0.811,0 0.972,-0.037 1.086,-0.248 0.18,-0.338 0.167,-0.743 -0.028,-0.821 -0.088,-0.036 2.813,-0.069 6.446,-0.073 3.633,-0.004 6.531,0.04 6.439,0.1 -0.19,0.12 -0.08,0.788 0.155,0.946 a 4.054,4.054 0 0 0 1.975,-0.056 1.07,1.07 0 0 0 0.155,-0.609 v -0.455 l -0.995,0.01 -0.994,0.01 0.926,-0.048 0.927,-0.047 0.147,-0.54 a 30.785,30.785 0 0 0 -0.052,-5.021 c -0.067,-0.361 -0.88,-1.013 -1.009,-0.809 -0.072,0.113 -0.1,0.1 -0.1,-0.058 0,-0.44 -0.232,-0.341 -0.358,0.154 -0.105,0.414 -0.1,0.512 0.049,0.512 a 0.223,0.223 0 0 0 0.193,-0.225 c 0.015,-0.214 0.018,-0.214 0.074,0 0.042,0.16 0.194,0.228 0.53,0.235 0.26,0 0.4,0.039 0.311,0.075 -0.089,0.036 -0.128,0.119 -0.087,0.185 a 1.04,1.04 0 0 1 -0.362,1.03 9.077,9.077 0 0 1 -3.367,0.061 l -0.385,-0.166 0.606,-0.387 a 4.972,4.972 0 0 1 1.376,-0.55 c 0.829,-0.176 0.812,-0.152 0.934,-1.284 0.032,-0.3 0.086,-0.323 0.78,-0.342 1,-0.029 1.352,-0.189 0.666,-0.3 L 20.024,9.277 20.505,9.259 C 21.362,9.223 21.035,8.673 20.093,8.577 Z M 6.74,10.649 a 4.6,4.6 0 0 1 -0.6,-0.77 6.394,6.394 0 0 1 0.731,0.77 4.494,4.494 0 0 1 0.6,0.77 6.342,6.342 0 0 1 -0.731,-0.77 z m -0.794,3.119 a 0.261,0.261 0 0 1 0.246,0.01 C 6.234,13.821 6.159,13.851 6.023,13.846 5.887,13.841 5.843,13.809 5.946,13.768 Z M 5.433,13.127 a 0.258,0.258 0 0 1 0.246,0.01 C 5.721,13.18 5.645,13.21 5.51,13.204 5.375,13.198 5.33,13.168 5.433,13.127 Z m 0,0.513 a 0.261,0.261 0 0 1 0.246,0.01 C 5.721,13.693 5.645,13.723 5.51,13.718 5.375,13.713 5.33,13.681 5.433,13.64 Z M 4.944,13.579 c -0.177,0 -0.249,-0.029 -0.161,-0.065 a 0.5,0.5 0 0 1 0.321,0 c 0.088,0.036 0.016,0.065 -0.16,0.065 z M 4.11,12.858 a 3.367,3.367 0 0 1 0.641,0.1 c 0.346,0.088 0.352,0.1 0.064,0.1 a 2.459,2.459 0 0 1 -0.641,-0.1 C 3.923,12.878 3.909,12.856 4.11,12.858 Z m 0.414,0.536 C 4.567,13.436 4.491,13.467 4.356,13.461 4.221,13.455 4.176,13.424 4.278,13.383 a 0.257,0.257 0 0 1 0.246,0.011 z M 4.011,13.265 C 4.053,13.308 3.978,13.338 3.842,13.333 3.706,13.328 3.663,13.296 3.765,13.255 a 0.26,0.26 0 0 1 0.246,0.01 z m -0.543,-0.7 c 0.141,0.1 0.281,0.2 0.31,0.224 0.029,0.024 -0.007,0.037 -0.08,0.037 A 0.562,0.562 0 0 1 3.388,12.601 C 3.225,12.4 3.231,12.4 3.468,12.569 Z m 0.246,3.458 C 3.565,16.017 3.534,15.986 3.637,15.945 a 0.261,0.261 0 0 1 0.246,0.01 C 3.925,16 3.849,16.032 3.714,16.027 Z m 1.871,0 C 4,15.859 3.661,15.609 3.661,14.625 c 0,-0.354 0.019,-0.365 0.481,-0.291 0.264,0.043 0.769,0.152 1.122,0.243 L 5.906,14.742 5.345,14.67 c -0.437,-0.056 -0.548,-0.034 -0.5,0.1 a 0.635,0.635 0 0 0 0.432,0.255 l 0.374,0.081 -0.353,0.016 c -0.194,0.008 -0.352,0.073 -0.352,0.143 0,0.07 0.158,0.136 0.352,0.146 0.3,0.015 0.312,0.025 0.064,0.073 -0.541,0.1 -0.336,0.423 0.273,0.423 a 6.073,6.073 0 0 1 0.956,0.078 C 6.962,16.06 6.983,16.042 6.957,15.697 6.931,15.352 6.882,15.324 6.29,15.253 L 5.651,15.177 6.228,15.147 6.806,15.117 6.357,14.933 C 5.933,14.76 5.929,14.754 6.293,14.82 a 0.94,0.94 0 0 1 0.808,0.948 c -0.048,0.391 -0.16,0.41 -1.516,0.263 z M 6,15.563 a 0.741,0.741 0 0 1 0.385,0 C 6.472,15.598 6.37,15.625 6.158,15.622 5.946,15.619 5.88,15.6 6,15.563 Z m 13.6,-2.654 a 3.273,3.273 0 0 0 0.93,-0.333 c 0.108,-0.089 0.2,-0.107 0.2,-0.039 0,0.068 -0.136,0.186 -0.3,0.262 a 3.977,3.977 0 0 1 -0.93,0.209 l -0.626,0.071 z m 0.194,0.485 c 0.042,0.042 -0.034,0.073 -0.169,0.067 -0.135,-0.006 -0.18,-0.037 -0.077,-0.078 a 0.257,0.257 0 0 1 0.242,0.011 z m -0.514,0.128 c 0.043,0.043 -0.033,0.073 -0.168,0.067 -0.135,-0.006 -0.18,-0.036 -0.077,-0.077 a 0.255,0.255 0 0 1 0.241,0.01 z M 18.385,13.13 a 0.491,0.491 0 0 1 0.321,0 c 0.088,0.035 0.016,0.064 -0.16,0.064 -0.176,0 -0.253,-0.029 -0.165,-0.064 z m 0,0.513 a 0.491,0.491 0 0 1 0.321,0 c 0.088,0.035 0.016,0.064 -0.16,0.064 -0.176,0 -0.253,-0.029 -0.165,-0.064 z m -0.363,2.287 c 0.969,-0.087 1.365,-0.341 0.691,-0.442 l -0.36,-0.054 0.353,-0.019 c 0.194,-0.011 0.353,-0.074 0.353,-0.139 0,-0.065 -0.159,-0.144 -0.353,-0.174 -0.329,-0.049 -0.324,-0.054 0.064,-0.072 0.29,-0.014 0.417,-0.082 0.417,-0.226 0,-0.231 -0.378,-0.2 -1.42,0.131 l -0.568,0.178 0.577,0.033 0.577,0.033 -0.641,0.078 c -0.75,0.091 -0.794,0.078 -0.587,-0.171 a 10.642,10.642 0 0 1 2.8,-0.765 c 0.413,-0.073 0.416,-0.07 0.416,0.442 0,0.788 -0.387,1.1 -1.489,1.2 -0.486,0.045 -1.088,0.111 -1.337,0.147 A 0.981,0.981 0 0 1 16.97,16.082 c -0.135,-0.134 -0.113,-0.562 0.029,-0.562 0.2,0 0.279,0.229 0.1,0.292 -0.39,0.143 0.044,0.197 0.919,0.118 z m -0.34,-0.367 a 0.741,0.741 0 0 1 0.385,0 c 0.087,0.035 -0.015,0.062 -0.227,0.059 C 17.628,15.619 17.553,15.6 17.678,15.563 Z M 16.591,13.31 a 1.429,1.429 0 0 1 0.326,0.531 l 0.021,0.02 h -0.016 a 0.8,0.8 0 0 1 -0.346,0.947 c -0.347,0.258 -0.526,0.271 -4.3,0.3 C 9.1,15.13 8.245,15.1 7.832,14.95 6.866,14.598 6.76,14.099 7.486,13.321 a 1.979,1.979 0 0 1 1.315,-0.7 18.693,18.693 0 0 1 6.853,0.1 2.394,2.394 0 0 1 0.937,0.589 z M 17,10.97 a 2.8,2.8 0 0 1 -0.5,0.449 c -0.035,0 0.131,-0.2 0.371,-0.449 a 2.8,2.8 0 0 1 0.5,-0.449 c 0.037,0 -0.13,0.202 -0.371,0.449 z m 1.171,-1.187 a 0.568,0.568 0 0 1 -0.31,0.225 c -0.074,0 -0.11,-0.017 -0.081,-0.037 0.029,-0.02 0.169,-0.121 0.31,-0.224 0.24,-0.174 0.246,-0.172 0.083,0.036 z M 4.187,10.4 a 4.415,4.415 0 0 0 -0.8,0.6 c -0.153,0.188 -0.145,0.2 0.061,0.126 a 2.328,2.328 0 0 1 0.655,-0.088 c 0.385,0 0.417,-0.031 0.377,-0.353 -0.04,-0.322 -0.038,-0.334 0.054,-0.042 a 0.612,0.612 0 0 0 0.274,0.371 C 4.931,11.055 4.96,11.006 4.901,10.852 A 1.771,1.771 0 0 1 4.816,10.323 V 10.01 Z M 7.28,6.529 C 9.393,6.221 16.353,6.29 17.359,6.629 17.487,6.673 17.45,6.608 17.271,6.474 16.881,6.185 14.42,5.918 12.063,5.911 A 20.128,20.128 0 0 0 6.78,6.448 C 6.627,6.6 6.7,6.613 7.28,6.529 Z m 8.577,6.301 h -1.632 c -1.516,0 -1.654,0.02 -1.94,0.288 l -0.308,0.289 -0.234,-0.289 C 11.522,12.846 11.416,12.83 9.828,12.83 H 8.147 l -0.452,0.417 c -0.6,0.555 -0.68,1.017 -0.233,1.369 a 0.822,0.822 0 0 0 1.029,0.131 41.457,41.457 0 0 1 7.071,0.018 1.006,1.006 0 0 0 1.11,-0.213 C 17.028,14.197 16.909,14.006 16.264,13.896 15.521,13.769 8.723,13.757 7.83,13.881 7.289,13.956 7.239,13.947 7.509,13.822 a 75.144,75.144 0 0 1 8.723,-0.06 l 0.69,0.1 v -0.017 l -0.519,-0.5 z"/>

</svg>
